Simply-Orange-Circles/scalable/apps/gmail.svg

<?xml version="1.0" encoding="UTF-8" standalone="no"?>
<svg
   xmlns:dc="http://purl.org/dc/elements/1.1/"
   xmlns:cc="http://creativecommons.org/ns#"
   xmlns:rdf="http://www.w3.org/1999/02/22-rdf-syntax-ns#"
   xmlns:svg="http://www.w3.org/2000/svg"
   xmlns="http://www.w3.org/2000/svg"
   xmlns:sodipodi="http://sodipodi.sourceforge.net/DTD/sodipodi-0.dtd"
   xmlns:inkscape="http://www.inkscape.org/namespaces/inkscape"
   width="48"
   height="48"
   viewBox="0 0 12.7 12.7"
   version="1.1"
   id="svg6"
   sodipodi:docname="gmail.svg"
   inkscape:version="0.92.4 (5da689c313, 2019-01-14)">
  <metadata
     id="metadata12">
    <rdf:RDF>
      <cc:Work
         rdf:about="">
        <dc:format>image/svg+xml</dc:format>
        <dc:type
           rdf:resource="http://purl.org/dc/dcmitype/StillImage" />
        <dc:title></dc:title>
      </cc:Work>
    </rdf:RDF>
  </metadata>
  <defs
     id="defs10" />
  <sodipodi:namedview
     pagecolor="#ffffff"
     bordercolor="#666666"
     borderopacity="1"
     objecttolerance="10"
     gridtolerance="10"
     guidetolerance="10"
     inkscape:pageopacity="0"
     inkscape:pageshadow="2"
     inkscape:window-width="1087"
     inkscape:window-height="480"
     id="namedview8"
     showgrid="false"
     inkscape:zoom="4.9166667"
     inkscape:cx="2.1355932"
     inkscape:cy="24"
     inkscape:window-x="0"
     inkscape:window-y="25"
     inkscape:window-maximized="0"
     inkscape:current-layer="svg6" />
  <path
     d="m 6.344,0.073 a 6.29,6.29 0 0 0 -6.29,6.29 6.29,6.29 0 0 0 6.29,6.288 6.29,6.29 0 0 0 6.29,-6.289 6.29,6.29 0 0 0 -6.29,-6.29 z M 6.326,1.009 A 5.407,5.407 0 0 1 11.733,6.416 5.407,5.407 0 0 1 6.326,11.823 5.407,5.407 0 0 1 0.92,6.416 5.407,5.407 0 0 1 6.326,1.01 Z"
     id="path2"
     inkscape:connector-curvature="0"
     style="fill:#ff7f2a" />
  <path
     d="M 9.63,3.242 A 0.173,0.173 0 0 0 9.527,3.277 L 6.35,5.617 3.173,3.277 A 0.171,0.171 0 0 0 3.07,3.243 0.863,0.863 0 0 0 2.207,4.106 v 4.489 c 0,0.476 0.386,0.863 0.863,0.863 H 3.415 A 0.173,0.173 0 0 0 3.588,9.285 V 9.202 L 6.35,7.252 6.253,7.183 c 0.06,0.04 0.137,0.04 0.196,0 L 6.35,7.253 9.112,9.202 v 0.083 c 0,0.096 0.078,0.173 0.173,0.173 H 9.63 A 0.863,0.863 0 0 0 10.493,8.595 V 4.105 A 0.863,0.863 0 0 0 9.63,3.242 Z M 3.588,5.302 6.05,7.041 3.588,8.779 Z m 5.524,0 V 8.78 L 6.65,7.041 Z"
     id="path4"
     inkscape:connector-curvature="0"
     style="opacity:0.753;fill:#ff0000" />
</svg>

<svg xmlns="http://www.w3.org/2000/svg" width="48" height="48" viewBox="0 0 12.7 12.7"><path fill="#ff7f2a" d="M6.34.07a6.29 6.29 0 0 0-6.29 6.3 6.29 6.29 0 0 0 6.3 6.28 6.29 6.29 0 0 0 6.28-6.29A6.29 6.29 0 0 0 6.34.07zm-.01.94a5.4 5.4 0 0 1 5.4 5.4 5.4 5.4 0 0 1-5.4 5.41 5.4 5.4 0 0 1-5.41-5.4A5.4 5.4 0 0 1 6.32 1z"/><path fill="red" d="M9.63 3.24a.17.17 0 0 0-.1.04L6.35 5.62 3.17 3.28a.17.17 0 0 0-.1-.04.86.86 0 0 0-.86.87v4.48c0 .48.38.87.86.87h.34a.17.17 0 0 0 .18-.18V9.2l2.76-1.95-.1-.07c.06.04.14.04.2 0l-.1.07L9.11 9.2v.08c0 .1.08.18.17.18h.35a.86.86 0 0 0 .86-.87V4.1a.86.86 0 0 0-.86-.86zM3.59 5.3l2.46 1.74-2.46 1.74zm5.52 0v3.48L6.65 7.04z" opacity=".75"/></svg>
